static/credit-card.svg

<?xml version="1.0" encoding="utf-8"?><!-- Uploaded to: SVG Repo, www.svgrepo.com, Generator: SVG Repo Mixer Tools -->
<svg width="800px" height="800px" viewBox="0 0 24 24" fill="none" xmlns="http://www.w3.org/2000/svg">
<path fill-rule="evenodd" clip-rule="evenodd" d="M20 4C21.6569 4 23 5.34315 23 7V17C23 18.6569 21.6569 20 20 20H4C2.34315 20 1 18.6569 1 17V7C1 5.34315 2.34315 4 4 4H20ZM20 6C20.5523 6 21 6.44772 21 7V9H3V7C3 6.44771 3.44772 6 4 6H20ZM3 11V17C3 17.5523 3.44772 18 4 18H20C20.5523 18 21 17.5523 21 17V11H3Z" fill="#0F0F0F"/>
</svg>

<svg xmlns="http://www.w3.org/2000/svg" width="800" height="800" fill="none" viewBox="0 0 24 24"><path fill="currentColor" fill-rule="evenodd" d="M20 4a3 3 0 0 1 3 3v10a3 3 0 0 1-3 3H4a3 3 0 0 1-3-3V7a3 3 0 0 1 3-3zm0 2a1 1 0 0 1 1 1v2H3V7a1 1 0 0 1 1-1zM3 11v6a1 1 0 0 0 1 1h16a1 1 0 0 0 1-1v-6z" clip-rule="evenodd"/></svg>
